spark-frontend/src/assets/icons/copy.svg

<svg width="24" height="24" viewBox="0 0 24 24" fill="none" xmlns="http://www.w3.org/2000/svg">
    <path fill-rule="evenodd" clip-rule="evenodd" d="M14.2857 4.3H5.71429C5.67096 4.3 5.5873 4.31729 5.48914 4.43182C5.38863 4.54907 5.3 4.7459 5.3 5V15C5.3 15.2541 5.38863 15.4509 5.48914 15.5682C5.5873 15.6827 5.67096 15.7 5.71429 15.7H8V9C8 7.89543 8.76751 7 9.71429 7H14.7V5C14.7 4.7459 14.6114 4.54907 14.5109 4.43182C14.4127 4.31729 14.329 4.3 14.2857 4.3ZM16 7V5C16 3.89543 15.2325 3 14.2857 3H5.71429C4.76751 3 4 3.89543 4 5V15C4 16.1046 4.76751 17 5.71429 17H8V19C8 20.1046 8.76751 21 9.71429 21H18.2857C19.2325 21 20 20.1046 20 19V9C20 7.89543 19.2325 7 18.2857 7H16ZM9.71429 8.3H18.2857C18.329 8.3 18.4127 8.31729 18.5109 8.43182C18.6114 8.54907 18.7 8.7459 18.7 9V19C18.7 19.2541 18.6114 19.4509 18.5109 19.5682C18.4127 19.6827 18.329 19.7 18.2857 19.7H9.71429C9.67096 19.7 9.5873 19.6827 9.48914 19.5682C9.38863 19.4509 9.3 19.2541 9.3 19V9C9.3 8.7459 9.38863 8.54907 9.48914 8.43182C9.5873 8.31729 9.67096 8.3 9.71429 8.3Z" fill="#969696"/>
</svg>

<svg xmlns="http://www.w3.org/2000/svg" width="24" height="24" fill="none"><path fill="#969696" fill-rule="evenodd" d="M14.286 4.3H5.714c-.043 0-.127.017-.225.132A.88.88 0 0 0 5.3 5v10c0 .254.089.45.19.568.097.115.181.132.224.132H8V9c0-1.105.768-2 1.714-2H14.7V5a.88.88 0 0 0-.19-.568c-.097-.115-.181-.132-.224-.132M16 7V5c0-1.105-.768-2-1.714-2H5.714C4.768 3 4 3.895 4 5v10c0 1.105.768 2 1.714 2H8v2c0 1.105.768 2 1.714 2h8.572c.947 0 1.714-.895 1.714-2V9c0-1.105-.767-2-1.714-2zM9.714 8.3h8.572c.043 0 .127.017.225.132.1.117.189.314.189.568v10c0 .254-.089.45-.19.568-.097.115-.181.132-.224.132H9.714c-.043 0-.127-.017-.225-.132A.88.88 0 0 1 9.3 19V9c0-.254.089-.45.19-.568.097-.115.181-.132.224-.132" clip-rule="evenodd"/></svg>
